X: 15
T:Lilting Banshee
R:Jig
Z:Added by Alf Warnock
M:6/8
L:1/8
K:D
|:EAA EAA|BAB G2A|Bee edB|def gfg|
eAA eAA|BAB G2A|Bee edB|dBG A2z:|
|:eaa age|dBA G2A|Bee edB|def gfg|
eaa age|dBA G2A|Bee edB|dBG A2z:|

